PortableApps/LibreOfficePortable/App/libreoffice/help/media/icon-themes/cmd/sc_renameobject.svg

<svg viewBox="0 0 16 16" xmlns="http://www.w3.org/2000/svg"><path d="m6 1a5 5 0 0 0 -5 5 5 5 0 0 0 5 5 5 5 0 0 0 3.9921875-2h-1.0273437c-1.0717811 0-1.9648438-.8930623-1.9648438-1.9648438v-.0703124c0-1.0717811.8930627-1.9648438 1.9648438-1.9648438h1.9296872a5 5 0 0 0 -4.894531-4z" fill="#eac282"/><path d="m8.964844 6.0000003c-.534081 0-.964844.430763-.964844.964844v.07031c0 .534083.430763.964846.964844.964846h2.035156v5.9999997h-2c-.554 0-1 .446-1 1s.446 1 1 1h6c.554 0 1-.446 1-1s-.446-1-1-1h-2v-5.9999997h2.035156c.534081 0 .964844-.430763.964844-.964844v-.07031c0-.534083-.430763-.964846-.964844-.964846z" fill="#4d82b8"/></svg>

<svg xmlns="http://www.w3.org/2000/svg" viewBox="0 0 16 16">
 <path
   style="fill:#eac282"
   d="M 6 1 A 5 5 0 0 0 1 6 A 5 5 0 0 0 6 11 A 5 5 0 0 0 9.9921875 9 L 8.9648438 9 C 7.8930627 9 7 8.1069377 7 7.0351562 L 7 6.9648438 C 7 5.8930627 7.8930627 5 8.9648438 5 L 10.894531 5 A 5 5 0 0 0 6 1 z "
   />
<path
   style="fill:#4d82b8"
   d="M 8.964844,6.0000003 C 8.430763,6.0000003 8,6.4307633 8,6.9648443 v 0.07031 c 0,0.534083 0.430763,0.964846 0.964844,0.964846 H 11 V 14 H 9 c -0.554,0 -1,0.446 -1,1 0,0.554 0.446,1 1,1 h 6 c 0.554,0 1,-0.446 1,-1 0,-0.554 -0.446,-1 -1,-1 H 13 V 8.0000003 h 2.035156 C 15.569237,8.0000003 16,7.5692373 16,7.0351563 v -0.07031 c 0,-0.534083 -0.430763,-0.964846 -0.964844,-0.964846 z"
   />
</svg>
